X: 7
T: Piano Sonata No. 3 in B\b major, K 281 (189f), mvmt. 1
C: Wolfgang Amadeus Mozart
%%abc-version 2.0
%%abcx-abcm2ps-target-version 5.9.1 (29 Sep 2008)
%%abc-creator hum2abc beta
%%abcx-conversion-date 2021/01/14 17:01:32
%%abc-copyright 2018 Craig Stuart Sapp
%%abc-edited-by Craig Stuart Sapp
%%abc-edited-by Craig Stuart Sapp
%%abcx-initial-encoding-date 2009/10/02
%%gracespace 0 6 6
%%humdrum-veritas 3127453041
%%humdrum-veritas-data 2130521599
%%linebreak <none>
%%barnumbers 0
L: 1/16
M: 2/4
N: Derived from sonata03-1.krn
Q: "Allegro." 1/4=84
%%staves {1 2}
V: 1 clef=treble
V: 2 clef=bass
K: Bb
[V:1] !trill!B3c/d/ (3:2:6BAc!beambr1!BAe | 
[V:2] [B,4D4][C4E4] | 
[V:1] (3:2:6cBd!beambr1!cBf .d2 z2 | 
[V:2] [D4F4]z4 | 
[V:1] !arpeggio![B2e2g2]!arpeggio![B2d2f2] f/b/a/b/ d'/b/a/b/ | 
[V:2] [E,2E2][B,,2B,2]z4 | 
[V:1] {/[d//f/8]} [c2e2][B2d2]z4 | 
[V:2] [F,,2F,2][B,,2B,2]z4 | 
[V:1] !trill!B,3C/D/ (3:2:6B,A,C!beambr1!B,A,E | 
[V:2] [B,,4D,4][C,4E,4] | 
[V:1] (3:2:6CB,D!beambr1!CB,F .D2 z2 | 
[V:2] [D,4F,4]z4 | 
[V:1] (3:2:6Gce!beambr1!ceg g/f/e/d/ d/c/B/A/ | 
[V:2] x4D2E2 & !arpeggio![E,4G,4C4]F,4 | 
[V:1] B4z BA_A | 
[V:2] [B,D][B,D][B,D][B,D] [B,D][B,D][B,D][B,D] | 
[V:1] G=A/B/ c/d/e/f/ g/a/b/a/ b/a/b/g/ | 
[V:2] [B,E][B,E][B,E][B,E] [B,E][B,E][B,E][B,E] | 
[V:1] f4z BA_A | 
[V:2] [B,D][B,D][B,D][B,D] [B,D][B,D][B,D][B,D] | 
[V:1] G=A/B/ c/d/e/f/ g/a/b/a/ b/a/b/g/ | 
[V:2] [B,E][B,E][B,E][B,E] [B,E][B,E][B,E][B,E] | 
[V:1] f2 z/ b/c'/b/ .d'/.c'/.b/.a/ .g/.f/.e/.d/ | 
[V:2] [B,D].B,.D.F B,2 z2 | 
[V:1] e2 z/ a/b/a/ .c'/.b/.a/.g/ .f/.e/.d/.c/ | 
[V:2] z .F,.A,.C F,2 z2 | 
[V:1] d2 z/ f/g/f/ .b/.a/.g/.f/ .e/.d/.c/.=B/ | 
[V:2] z .[B,,,B,,].[D,,D,].[F,,F,] [D,,2D,2] z[K:clef=treble] [DF] | 
[V:1] d/c/e/d/ f/e/g/^f/ g/.=f/.e/.d/ .c/._B/.A/.B/ | 
[V:2] [E4G4]z2 z [=EG] | 
[V:1] .A/.B/.c/.d/ =e/f/e/f/ .F2 z2 | 
[V:2] F2 z2[K:clef=bass] .A,,/.B,,/.C,/.D,/ =E,/F,/E,/F,/ | 
[V:1] z2 z .c' .c'.c'.c'.c' | 
[V:2] F,,2 z2z4[K:clef=treble] | 
[V:1] c'3b/a/ g.f.=e.g | 
[V:2] FcAc GcBc | 
[V:1] f2 z .c' .c'.c'.c'.c' | 
[V:2] AFc zz4 | 
[V:1] c'3b/a/ g.a.b.g | 
[V:2] FcAc =EcGc | 
[V:1] a2 z .c' .c'.c'c'^c' | 
[V:2] FAc zz4[K:clef=bass] | 
[V:1] d'/d/^c/d/ _e/d/=e/d/ f/d/^f/d/ g/d/a/d/ | 
[V:2] [B,,4B,4]z4[K:clef=treble] | 
[V:1] b4z> b !trill!b3/a//b// | 
[V:2] G/A/B/A/ G/A/F/G/ =E/F/D/E/ C/D/B,/C/[K:clef=bass] | 
[V:1] c'/c/=B/c/ _d/c/=d/c/ _e/c/=e/c/ f/c/g/c/ | 
[V:2] [A,,4A,4]z4[K:clef=treble] | 
[V:1] a4z> a !trill!a3/g//a// | 
[V:2] F/G/A/G/ F/G/=E/F/ D/E/C/D/ B,/C/A,/B,/[K:clef=bass] | 
[V:1] b/B/A/B/ c/B/_d/B/ =d/B/=e/B/ f/B/^f/B/ | 
[V:2] [G,,4G,4]z4[K:clef=treble] | 
[V:1] g2z.b ag=f=e | 
[V:2] C/=E/G/E/ C/E/G/E/ C/G/B/G/ C/G/B/G/ | 
[V:1] gf z .c' bag^f | 
[V:2] C/F/A/F/ C/F/A/F/ C/_E/^F/E/ C/E/A/E/ | 
[V:1] g>a c'/b/a/g/ =f2=e2 | 
[V:2] B,/D/G/D/ B,/D/G/D/ C/=F/A/F/ C/G/B/G/[K:clef=bass] | 
[V:1] z/ f/=e/f/ z/ c/=B/c/ z/ A/^G/A/ z/ F/=E/F/ | 
[V:2] [F,2F2][C,2C2][A,,2A,2][F,,2F,2][K:clef=treble] | 
[V:1] {/G/c/} =e2z.b agf=e | 
[V:2] C/G/B/G/ C/G/B/G/ C/G/B/G/ C/G/B/G/ | 
[V:1] gf z .c' bag^f | 
[V:2] C/F/A/F/ C/F/A/F/ C/_E/^F/E/ C/E/A/E/ | 
[V:1] g>a a/b/c'/d'/ {/d'//} =f2!trill!g2 {/fg} | 
[V:2] B,/D/G/D/ B,/D/G/D/ C/=F/A/F/ C/=E/B/E/ | 
[V:1] z c'/a/ f/c/A/F/[C4_E4]- | 
[V:2] [F2A2] z2[K:clef=bass] z [F,,F,][A,,A,][F,,F,] | 
[V:1] [CE]D z [Bd] z [Ac] z [B,=E] | 
[V:2] [B,,2B,2] G,2C2C,2 | 
[V:1] z c'/a/ f/c/A/F/[C4_E4]- | 
[V:2] [F,2A,2] z2 z [F,,F,][A,,A,][F,,F,] | 
[V:1] [CE]D z [Bd] z [Ac] z [B,=E] | 
[V:2] [B,,2B,2] G,2C2C,2 | 
[V:1] [A,2F2] z [FA] [=EG].[EG] z [GB] | 
[V:2] F,,/F,/=E,/F,/ F,,/F,/E,/F,/ F,,/F,/E,/F,/ F,,/F,/E,/F,/ | 
[V:1] [FA].[FA] z [fa] [=eg].[eg] z [egb] | 
[V:2] F,,/F,/=E,/F,/ F,,/F,/E,/F,/ F,,/F,/E,/F,/ F,,/F,/E,/F,/ | 
[V:1] [=e4g4b4][f2a2] z2 :|]  
[V:2] [F,,6F,6]z2 :|]  
[V:1] {/=B/c/d/}c4-cf=ed | 
[V:2] [K:clef=treble]F/A/^G/A/ F/A/G/A/ F/A/G/A/ F/A/G/A/ | 
[V:1] !mordent!dc z .c =Bcdc | 
[V:2] =E/=G/^F/G/ E/G/F/G/ E/G/F/G/ E/G/F/G/ | 
[V:1] !mordent!c_B z .B !mordent!BA z .A | 
[V:2] D/=F/=E/F/ D/F/E/F/ C/E/D/E/ C/E/D/E/ | 
[V:1] !mordent!AGBG =EF z2 | 
[V:2] B,/D/C/D/ B,/D/C/D/ A,/C/B,/C/ A,/C/B,/C/[K:clef=bass] | 
[V:1] !trill!F3G/A/ (3:2:6F=EG!beambr1!FEB | 
[V:2] C8 & A,4B,4 | 
[V:1] (3:2:6GFA!beambr1!GFc .A2 z2 | 
[V:2] C4z4 & A,4x4 | 
[V:1] (3:2:6GBd!beambr1!gbd' d'/c'/b/a/ a/g/f/=e/ | 
[V:2] !arpeggio![D,4G,4]A,2B,2 & !arpeggio!B,,4C,4 | 
[V:1] f4z4 | 
[V:2] (3F,G,A, (3B,CD (3_EDC (3B,A,G, | 
[V:1] (3z ab (3c'^fg (3acd (3_eAc | 
[V:2] ^F,4z4 | 
[V:1] B4z4 | 
[V:2] (3G,B,C (3DFG (3_AGF (3EDC | 
[V:1] (3z de (3f=Bc (3dFG (3_ADF | 
[V:2] =B,4z4 | 
[V:1] =E4z4 | 
[V:2] (3C,D,=E, (3F,G,A, (3_B,A,G, (3F,E,D, | 
[V:1] (3z [gb][^fa] (3[gb][fa][gb] (3z [GB][^FA] (3[GB][FA][GB] | 
[V:2] ^C,2 z2 ^C2 z2 | 
[V:1] .[^F2A2].!arpeggio![F2A2_e2]z4 | 
[V:2] .[D,2D2].[=C,2=C2]z4 | 
[V:1] d/g/^f/g/ a/g/f/g/ b/g/f/g/ e/g/f/g/ | 
[V:2] [B,,4B,4]z2 [C,2C2] | 
[V:1] d/g/^f/g/ a/g/f/g/ b/g/f/g/ c/g/f/g/ | 
[V:2] [B,,4B,4]z2 [E,2E2][K:clef=treble] | 
[V:1] Bg=B=f ce2d | 
[V:2] D/G/^F/G/ D/G/F/G/ C/G/F/G/ =B,/G/F/G/ | 
[V:1] !trill!e3d/c/ _B2!trill!A2 {/GA} | 
[V:2] C/G/^F/G/ C/A/_B/A/ D/G/^F/G/ D/F/=E/F/ | 
[V:1] Bg=B=f ce2d | 
[V:2] G,/G/^F/G/ D/G/F/G/ C/G/F/G/ =B,/G/F/G/ | 
[V:1] !trill!e3d/c/ _B2!trill!A2 {/GA} | 
[V:2] C/G/^F/G/ C/A/_B/A/ D/G/^F/G/ D/F/=E/F/[K:clef=bass] | 
[V:1] G2zG B2zB | 
[V:2] z [G,B,][B,2D2] z [G,B,][B,2D2] | 
[V:1] e2ze g2zg | 
[V:2] z [G,B,][B,2E2] z [G,B,][B,2E2] | 
[V:1] _a/b/a/g/ f/g/f/e/ d/e/d/c/ B/c/B/_A/ | 
[V:2] !arpeggio![F,8_A,8B,8D8] | 
[V:1] z/ G/_A/G/ z/ B/c/B/ z/ e/f/e/ z/ g/_a/g/ | 
[V:2] .E,2.G,2.B,2.E2 | 
[V:1] _a/b/a/g/ f/g/f/e/ d/e/d/c/ B/c/B/_A/ | 
[V:2] !arpeggio![F,8_A,8B,8D8] | 
[V:1] G/=A/B/A/ B/=B/c/B/ c/d/e/d/ e/^f/g/f/ | 
[V:2] [E,2G,2B,2E2] z2z4 | 
[V:1] g/a/_b/a/ b/a/b/a/ .b2 !arpeggio![G2B2c2=e2] | 
[V:2] z4z2 [G,,2G,2] | 
[V:1] !arpeggio![=A2c2f2] z (3b/g/=e/ f2 z (3b/g/e/ | 
[V:2] [F,,2F,2][K:clef=treble] z [Bc] [A2c2] z [Bc] | 
[V:1] f2 z ^f/g/ =e/=f/d/_e/ ^c/d/=B/=c/ | 
[V:2] [A2c2] z2z4[K:clef=bass] | 
[V:1] !trill!_B3c/d/ (3:2:6BAc!beambr1!BAe | 
[V:2] [B,4D4][C4E4] | 
[V:1] (3:2:6cBd!beambr1!cBf .d2 z2 | 
[V:2] [D4F4]z4 | 
[V:1] !arpeggio![B2e2g2]!arpeggio![B2d2f2] f/b/a/b/ d'/b/a/b/ | 
[V:2] [E,2E2][B,,2B,2]z4 | 
[V:1] {/[d//f//]} [c2e2][B2d2]z4 | 
[V:2] [F,,2F,2][B,,2B,2]z4 | 
[V:1] !trill!B,3C/D/ (3:2:6B,A,C!beambr1!B,A,E | 
[V:2] [B,,4D,4][C,4E,4] | 
[V:1] (3:2:6CB,D!beambr1!CB,F .D2 z2 | 
[V:2] [D,4F,4]z4 | 
[V:1] (3:2:6Gce!beambr1!ceg g/f/e/d/ d/c/B/A/ | 
[V:2] x4D2E2 & !arpeggio![E,4G,4C4]F,4 | 
[V:1] B4z BA_A | 
[V:2] [B,D][B,D][B,D][B,D] [B,D][B,D][B,D][B,D] | 
[V:1] G=A/B/ c/d/e/f/ g/a/b/a/ b/a/b/g/ | 
[V:2] [B,E][B,E][B,E][B,E] [B,E][B,E][B,E][B,E] | 
[V:1] f4z BA_A | 
[V:2] [B,D][B,D][B,D][B,D] [B,D][B,D][B,D][B,D] | 
[V:1] G=A/B/ c/d/e/f/ g/a/b/a/ b/a/b/g/ | 
[V:2] [B,E][B,E][B,E][B,E] [B,E][B,E][B,E][B,E] | 
[V:1] f2 z/ b/c'/b/ .d'/.c'/.b/.a/ .g/.f/.e/.d/ | 
[V:2] [B,D].B,.D.F B,2 z2 | 
[V:1] e2 z/ a/b/a/ .c'/.b/.a/.g/ .f/.e/.d/.c/ | 
[V:2] z .F,.A,.C F,2 z2 | 
[V:1] d2 z/ f/g/f/ .b/.a/.g/.f/ .e/.d/.c/.=B/ | 
[V:2] z .[B,,,B,,].[D,,D,].[F,,F,] [D,,2D,2] z[K:clef=treble] [DF] | 
[V:1] d/c/e/d/ f/e/g/^f/ g/.=f/.e/.d/ .c/._B/.A/.B/ | 
[V:2] [E4G4]z2 z [=EG] | 
[V:1] .A/.B/.c/.d/ =e/f/e/f/ .F2 z2 | 
[V:2] F2 z2[K:clef=bass] .A,,/.B,,/.C,/.D,/ =E,/F,/E,/F,/ | 
[V:1] z2 z .f .f.f.f.f | 
[V:2] .F,,2 z2z4[K:clef=treble] | 
[V:1] f3_e/d/ c.B.A.c | 
[V:2] B,FDF CFEF | 
[V:1] B2 z .f .f.f.f.f | 
[V:2] DFB zz4 | 
[V:1] f3e/d/ c.d.e.c | 
[V:2] B,FDF A,FCF | 
[V:1] d2 z .f .f.ff^f | 
[V:2] B,DF zz4[K:clef=bass] | 
[V:1] g/G/^F/G/ _A/G/=A/G/ B/G/=B/G/ c/G/d/G/ | 
[V:2] [E,4E4]z4 | 
[V:1] e4z> e !trill!e3/d//e// | 
[V:2] C/D/E/D/ C/D/B,/C/ A,/B,/G,/A,/ F,/G,/E,/F,/ | 
[V:1] f/F/=E/F/ G/F/_A/F/ =A/F/B/F/ c/F/^c/F/ | 
[V:2] [D,,4D,4]z4 | 
[V:1] d4z> d' !trill!d'3/c'//d'// | 
[V:2] B,/C/D/C/ B,/C/A,/B,/ G,/A,/F,/G,/ E,/F,/D,/E,/ | 
[V:1] e'/e/d/e/ f/e/_g/e/ =g/e/a/e/ b/e/=b/e/ | 
[V:2] [C,,4C,4]z4[K:clef=treble] | 
[V:1] c'2z.e' d'c'_ba | 
[V:2] F/A/c/A/ F/A/c/A/ F/c/e/c/ F/c/e/c/ | 
[V:1] c'b z .f' e'd'c'=b | 
[V:2] F/B/d/B/ F/B/d/B/ F/_A/=B/A/ F/A/d/A/ | 
[V:1] c'>d' f'/e'/d'/c'/ _b2a2 | 
[V:2] E/G/c/G/ E/G/c/G/ F/_B/d/B/ F/c/e/c/ | 
[V:1] z/ b/a/b/ z/ f/=e/f/ z/ d/^c/d/ z/ B/A/B/ | 
[V:2] [B,2B2][K:clef=bass] [F,2F2][D,2D2][B,,2B,2] | 
[V:1] {/_E/F/} A2z.e dcBA | 
[V:2] F,/C/E/C/ F,/C/E/C/ F,/C/E/C/ F,/C/E/C/ | 
[V:1] cB z .f edc=B | 
[V:2] F,/B,/D/B,/ F,/B,/D/B,/ F,/_A,/=B,/A,/ F,/A,/D/A,/ | 
[V:1] c>d d/e/f/g/ {/g//} _B2!trill!c2 {/Bc} | 
[V:2] E,/G,/C/G,/ E,/G,/C/G,/ F,/_B,/D/B,/ F,/=A,/C/A,/ | 
[V:1] z f'/d'/ b/f/d/B/[F4_A4]- | 
[V:2] [B,2D2] z2 z [B,,B,][D,D][B,,B,] | 
[V:1] [FA]G z [eg] z [df] z [E=A] | 
[V:2] [E,2E2] C2F2F,2 | 
[V:1] z f/d/ B/F/D/B,/x4 | 
[V:2] x4[F,4_A,4]- & [B,2D2] z2 z [B,,,B,,][D,,D,][B,,,B,,] | 
[V:1] x2 x [EG] z [DF] z [E=A] | 
[V:2] [F,A,]G, x2x4 & [E,,2E,2] C,2F,2F,,2 | 
[V:1] [D2B2] z [Bd] [Ac].[Ac] z [ce] | 
[V:2] B,,/B,/A,/B,/ B,,/B,/A,/B,/ B,,/B,/A,/B,/ B,,/B,/A,/B,/ | 
[V:1] [Bd].[Bd] z [df_a] [eg][eg] z [ce=a] | 
[V:2] B,,/B,/A,/B,/ B,,/B,/A,/B,/ B,,/B,/A,/B,/ B,,/B,/A,/B,/ | 
[V:1] [c4e4a4][d2b2] z2 |]  
[V:2] [B,,6B,6]z2 |]  


